X:4357
T:Mooncoin Jig
O:england
M:6/8
L:1/8
Q:100
C:Trad
R:Jig
K:D
cBA AEA | AEA Bcd | cBA Ace | dBG Bcd | cBA AEA | AEA Bcd | Ace gfe | dB
G Bcd :|
|: cde efg | faf ged | cde efg | faA Bcd | cde efg | afd bge | afd gec |
dBG Bcd :|
|: cBA Aaf | ecA Bcd | cBA g2e | dBG Bcd | cBA Aaa | Agg Aff | Aee efg |
dBG Bcd :|


